!!!COM: Bach, Johann Sebastian
!!!OTL: 9. Ermuntre dich, mein schwacher Geist
!!!ONM: No. 9
!!!OCL: Erk
!!!SCA: BWV 248.12
!!!YOE: Riemenschneider, Albert
!!!OPR: 371 Harmonized Chorales and 69 Chorale Melodies with Figured Bass
!!!OPT: Bach Chorale Harmonizations
!!!ONB: From the "Christmas Oratorio", Part II, No. 3
**harm	**root	**kern	**kern	**kern	**kern
!	!	!bass	!tenor	!alto	!sprno
*Iorgan	*Iorgan	*Iorgan	*Iorgan	*Iorgan	*Iorgan
*>[A,A,B]	*>[A,A,B]	*>[A,A,B]	*>[A,A,B]	*>[A,A,B]	*>[A,A,B]
*>norep[A,B]	*>norep[A,B]	*>norep[A,B]	*>norep[A,B]	*>norep[A,B]	*>norep[A,B]
*>A	*>A	*>A	*>A	*>A	*>A
*k[b-]	*k[b-]	*k[b-]	*k[b-]	*k[b-]	*k[b-]
*F:	*F:	*F:	*F:	*F:	*F:
*met(C)	*met(C)	*met(C)	*met(C)	*met(C)	*met(C)
*M4/4	*M4/4	*M4/4	*M4/4	*M4/4	*M4/4
*MM60	*MM60	*MM60	*MM60	*MM60	*MM60
I	4GG	8F	4A	4c	4f
.	.	8E	.	.	.
=1	=1	=1	=1	=1	=1
vi	4EE	4D	8A	4d	4f
.	.	.	[8B-	.	.
V7	4DD	4C	8B-]	4e	4g
.	.	.	8c	.	.
I	8GG	4F	8A	8c	8a
V7d/V	8AA	.	8G	8d	8b
Vb	4DD	8E	4G	4e	4cc
.	.	8F	.	.	.
=2	=2	=2	=2	=2	=2
Vc	4DD	4G	4G	8d	4cc
.	.	.	.	8e	.
V7/V	4AA	4GG	4G	4f	4b
V;	4DD;	4C;	4G;	4e;	4cc;
Vb/vi	4BB	4C#	8A	4e	4a
.	.	.	8G	.	.
=3	=3	=3	=3	=3	=3
IVb	8CC	8D	8F	4d	4b-
viio7	8FF#	8E	8G	.	.
I	8GG	8F	8A	8c	4a
IV7	8CC	8BB-	8B-	8d	.
V7d	4DD	8B-	4c	4e	4g
.	.	8A	.	.	.
I	4GG	8G	4c	[4f	4a
.	.	8F	.	.	.
=4	=4	=4	=4	=4	=4
V	2DD	4c	4.c	4f]	2g
.	.	4C	.	4e	.
.	.	.	8B-	.	.
I;	4GG;	4F;	4A;	4c;	4f;
=:|!	=:|!	=:|!	=:|!	=:|!	=:|!
*>B	*>B	*>B	*>B	*>B	*>B
V	4DD	4C	8c	8e	4g
.	.	.	8d	8f	.
=5	=5	=5	=5	=5	=5
V	8DD	8c	8e	4.g	4g
iib	8AA	8B-	8d	.	.
viiob/ii	4GG#	4A	4c	.	4a
.	.	.	.	8f#	.
ii	4AA	4G	4d	8g	4b-
.	.	.	.	8f#	.
viioD7/vi	4DD#	4C#	4e	4g	4b-
=6	=6	=6	=6	=6	=6
!!linebreak: 2
vi	4EE	4D	4A	4g	8a
.	.	.	.	.	8g
V/ii	4EE	4D	8d	4f#	4a
.	.	.	8c	.	.
ii;	4AA;	4GG;	4B-;	4d;	4g;
vi	8EE	8D	8F	8d	4a
V7b/vi	8BB	8E	8G	8c#	.
=7	=7	=7	=7	=7	=7
vib	4EE	4F	8A	4d	4a
.	.	.	8B-	.	.
V7b/ii	4EE	4F#	8c	4d	4a
.	.	.	8d	.	.
ii	4AA	4G	4B-	8d	8b-
.	.	.	.	8e	8cc
viioD7/iii	4AA#	4G#	4B	8f	4dd
.	.	.	.	8e	.
=8	=8	=8	=8	=8	=8
iii	4BB	4A	4A	8e	4dd
.	.	.	.	8f	.
V7/vi	4BB	4AA	4A	4g	4cc#
vi;	4EE;	4D;	4A;	4f;	4dd;
V	4DD	8c	4c	4g	4ee
.	.	8B-	.	.	.
=9	=9	=9	=9	=9	=9
Ib	4GG	8A	4c	8f	4ff
.	.	8G	.	8g	.
I	4GG	8F	4f	[4a	4a
.	.	8E	.	.	.
IV7b	8CC	8D	8F	8a]	4b-
viio7	8FF#	8E	8G	[8g	.
vib	4EE	8F	4A	8g]	4a
.	.	8D	.	8f	.
=10	=10	=10	=10	=10	=10
V7b/V	2AA	8BB	8d	2f	2g
.	.	8AA	8c	.	.
.	.	8BB	8d	.	.
.	.	8GG	8B	.	.
V;	4DD;	4C;	4c;	4e;	4g;
Ib	4GG	4AA	[4c	8f	4cc
.	.	.	.	8e	.
=11	=11	=11	=11	=11	=11
IV	4CC	4BB-	8c]	4d	4dd
.	.	.	8B-	.	.
V7	4DD	4C	8B-	4e	4cc
.	.	.	8A	.	.
IV7b	8CC	8D	8A	8f	4b-
viio	8FF#	8E	8G	8g	.
I	4GG	4F	4F	4c	8a
.	.	.	.	.	8b-
=12	=12	=12	=12	=12	=12
ii7b	4AA	4BB-	8F	4d	2g
.	.	.	16E	.	.
.	.	.	16D	.	.
V	4DD	4C	4E	4c	.
I;	4GG;	4FF;	4A;	4c;	4f;
==	==	==	==	==	==
*-	*-	*-	*-	*-	*-
!!!CDT: 1685/3//-1750/7/28
!!!OCY: Deutschland
!!!AGN: chorale
!!!AST: Baroque
!!!AIN: vox
!!!YOY: 1941
!!!PPP: New York; London
!!!PPR: G. Schirmer
!!!ENC: David Huron
!!!EED: David Huron
!!!YEN: United States of America
!!!YER: 1992
!!!YEC: Copyright 1992 David Huron
!!!YEM: Rights to all derivative electronic formats reserved.
!!!YER: March 20, 1996
!!!AMT: simple quadruple
!!!EEV: 1.1
!!chor2scor: -l 2 -s 0.6 -o %b.pmx
